X:547
T:The humours of Listowel
T:Babes in the woods
R:Polka
O:Ireland
B:Irish Traditional Music Session Tunes 3 n45
S:Castle Ceili Band
Z:Transcription:m euritt, minor arr., chords:Mike Long
M:2/4
L:1/16
K:D
"D"A2BA F2A2|d2e2 f4|"G"g4 "A"f2e2|"D"d2f2 "A"A4|\
"D"A2BA F2A2|d2e2 f4|"G"g4 "A"f2e2|"D"d4 d4:|
|:"A"e4 e2d2|c2e2 a4|e4 e2>f2|"(G)"g2e2 "A"c2A2|\
"A"e4 e2d2|c2e2 a4|"G"g2ag "A"f2e2|"D"d4 d4:|
